X:1
T:Title
%%score { ( 1 3 ) | ( 2 4 ) }
L:1/8
Q:1/4=94
M:4/4
K:Eb
V:1 treble nm="Grand Piano"
V:3 treble 
V:2 bass 
V:4 bass 
V:1
 [GB]2 [EG]>[FA] [GB]3 [GB] | [Ac][Ad][Be]f e2 d2 | [DF]2 [DF]>[EG] [FA]3 [FA] | %3
w: John~R.~Sweney * * * *|||
 [Dc][DB][EB][FA] [EG]4 | [GB]2 [EG]>[FA] [GB]3 [GB] | =BBBd [Fd]2 [Ec]2 | [Ac]2 [Ad][Ad] [Ge]BGE | %7
w: ||||
 [DB]2 [B,D]2 [B,E]4 | [DF]2 [DF][DF] [EG]2 [EG]2 | [FA]2 [FA][FA] G4 | B2 c[Ad] [Ge]2 [EB][EB] | %11
w: ||||
 [B,FB][B,FB][B,FA][B,EG] [B,DF]4 | [B,EG]2 [B,EG][B,EG] [A,EA]2 [A,EA]2 | z4 B4 | z4 [=Ec]2 z2 | %15
w: ||||
 [DB][DB]DD E4 |] %16
w: |
V:2
 [E,E]2 [E,B,]>[E,B,] [E,E]3 [E,E] | [A,E][F,B,][G,B,][K:treble][A,CA] [B,G]2 [B,F]2 | %2
 [B,,B,]2 [B,,B,]>[B,,B,] [B,,B,]3 [B,,F,] | [B,,F,][B,,F,][C,F,][D,B,] [E,B,]4 | %4
 [E,E]2 [E,B,]>[E,B,] [E,E]3 [E,E] | [G,DF][G,DF][G,DF][G,=B,F][K:bass] [C,B,]2 [C,C]2 | %6
 [A,E]2 [F,B,][F,B,] [E,B,]B,G,E, | [B,,F,]2 [B,,A,]2 [E,G,]4 | %8
 [B,,B,]2 [B,,B,][B,,B,] [E,B,]2 [E,B,]2 | [D,B,]2 [D,B,][D,B,] [E,B,E]4 | %10
 [G,E]2 [A,EA][K:bass][F,B,] [E,B,]2 [E,G,][E,G,] | D,D,E,E, B,,4 | E,2 _D,D, C,2 C,2 | %13
 =B,,2 B,,B,, z2 D2 | [G,B,E]2 [G,B,E][E,G,E] .[C,G,]2 [F,CF][F,A,C] | %15
 [B,,F,][B,,F,][B,,A,B,][B,,A,B,] [E,G,B,]4 |] %16
V:3
 x8 | x8 | x8 | x8 | x8 | x8 | x8 | x8 | x8 | x8 | x8 | x8 | x8 | [E_G=A]2 [EGA][EGA] [E=G]2 _G2 | %14
 e2 GG z CAF | x8 |] %16
V:4
 x8 | x3[K:treble] x5 | x8 | x8 | x8 | x4[K:bass] x4 | x8 | x8 | x8 | x8 | x3[K:bass] x5 | x8 | %12
 x8 | z4 _B,,4 | x8 | x8 |] %16

